svg/fluentui-system-icons/ic_fluent_text_indent_decrease_ltr_24_filled.svg

<svg width="24" height="24" viewBox="0 0 24 24" fill="none" xmlns="http://www.w3.org/2000/svg">
<path d="M9 16H17.5C18.0523 16 18.5 16.4477 18.5 17C18.5 17.5128 18.114 17.9355 17.6166 17.9933L17.5 18H9C8.44772 18 8 17.5523 8 17C8 16.4872 8.38604 16.0645 8.88338 16.0067L9 16H17.5H9ZM2.29289 11.2929L4.29289 9.29289C4.68342 8.90237 5.31658 8.90237 5.70711 9.29289C6.06759 9.65338 6.09532 10.2206 5.7903 10.6129L5.70711 10.7071L4.41421 12L5.70711 13.2929C6.09763 13.6834 6.09763 14.3166 5.70711 14.7071C5.34662 15.0676 4.77939 15.0953 4.3871 14.7903L4.29289 14.7071L2.29289 12.7071C1.93241 12.3466 1.90468 11.7794 2.2097 11.3871L2.29289 11.2929L4.29289 9.29289L2.29289 11.2929ZM8.99991 11L20.4999 10.9989C21.0522 10.9989 21.5 11.4465 21.5 11.9988C21.5 12.5117 21.114 12.9344 20.6167 12.9922L20.5001 12.9989L9.00009 13C8.44781 13.0001 8 12.5524 8 12.0001C8 11.4873 8.38596 11.0646 8.88329 11.0067L8.99991 11L20.4999 10.9989L8.99991 11ZM9 6H17.5C18.0523 6 18.5 6.44772 18.5 7C18.5 7.51284 18.114 7.93551 17.6166 7.99327L17.5 8H9C8.44772 8 8 7.55228 8 7C8 6.48716 8.38604 6.06449 8.88338 6.00673L9 6H17.5H9Z" fill="#212121"/>
</svg>

<svg xmlns="http://www.w3.org/2000/svg" width="24" height="24"><path d="M9 16h8.5a1 1 0 0 1 .117 1.993L17.5 18H9a1 1 0 0 1-.117-1.993L9 16h8.5H9Zm-6.707-4.707 2-2a1 1 0 0 1 1.497 1.32l-.083.094L4.414 12l1.293 1.293a1 1 0 0 1-1.32 1.497l-.094-.083-2-2a1 1 0 0 1-.083-1.32l.083-.094 2-2-2 2ZM9 11l11.5-.001a1 1 0 0 1 .117 1.993L20.5 13H9a1 1 0 0 1-.117-1.993L9 11l11.5-.001L9 11Zm0-5h8.5a1 1 0 0 1 .117 1.993L17.5 8H9a1 1 0 0 1-.117-1.993L9 6h8.5H9Z"/></svg>
